icon/lg/lighthouse.svg

<?xml version="1.0" encoding="UTF-8"?>
<svg viewBox="0 0 256 256" version="1.1" xmlns="http://www.w3.org/2000/svg" xmlns:xlink="http://www.w3.org/1999/xlink" preserveAspectRatio="xMidYMid" height="1em" width="1em">
  <defs>
    <path d="M53.4829517,15.7295112 L45.838174,15.7295112 C42.597311,6.560134 33.8657117,0 23.5942668,0 C10.5698308,0 0,10.5698308 0,23.5942668 C0,36.6187028 10.5698308,47.1907116 23.5942668,47.1907116 L53.4829517,47.1907116 C62.169477,47.1871051 69.2100591,40.1455481 69.2124629,31.4590224 C69.2088571,22.7733472 62.1686268,15.733117 53.4829517,15.7295112 Z" id="path-1"/>
    <linearGradient x1="49.994%" y1="0.226%" x2="49.994%" y2="99.725%" id="linearGradient-3">
      <stop stop-color="#212121" stop-opacity="0.04" offset="0%"/>
      <stop stop-color="#212121" stop-opacity="0" offset="66%"/>
    </linearGradient>
    <path d="M29.8865069,-1.74705197e-15 L0,-1.74705197e-15 L0,31.4590224 L29.8865069,31.4590224 C38.572182,31.4554166 45.6124123,24.4151864 45.6160181,15.7295112 C45.6124123,7.04383604 38.572182,0.00360576058 29.8865069,-1.74705197e-15 Z" id="path-4"/>
    <path d="M0.71972456,0.71972456 L13.4762667,41.0040003 C17.7364334,36.7242316 24.3139914,30.8262094 24.3139914,24.3139914 C24.3139914,11.2895553 13.7441606,0.71972456 0.71972456,0.71972456 Z" id="path-6"/>
    <filter x="-29.7%" y="-12.4%" width="159.3%" height="134.8%" filterUnits="objectBoundingBox" id="filter-7">
      <feOffset dx="0" dy="2" in="SourceAlpha" result="shadowOffsetOuter1"/>
      <feGaussianBlur stdDeviation="2" in="shadowOffsetOuter1" result="shadowBlurOuter1"/>
      <feColorMatrix values="0 0 0 0 0   0 0 0 0 0   0 0 0 0 0  0 0 0 0.2 0" type="matrix" in="shadowBlurOuter1"/>
    </filter>
    <radialGradient cx="10.1054816%" cy="14.269%" fx="10.1054816%" fy="14.269%" r="144.565193%" gradientTransform="translate(0.101055,0.142690),scale(0.681824,1.000000),translate(-0.101055,-0.142690)" id="radialGradient-8">
      <stop stop-color="#FFFFFF" stop-opacity="0.1" offset="0%"/>
      <stop stop-color="#FFFFFF" stop-opacity="0" offset="100%"/>
    </radialGradient>
    <linearGradient x1="36.626%" y1="20.358%" x2="64.01%" y2="100.652%" id="linearGradient-9">
      <stop stop-color="#FFFFFF" stop-opacity="0.1" offset="0%"/>
      <stop stop-color="#FFFFFF" stop-opacity="0" offset="100%"/>
    </linearGradient>
    <linearGradient x1="68.935%" y1="65.756%" x2="31.065%" y2="35.799%" id="linearGradient-10">
      <stop stop-color="#262626" stop-opacity="0.1" offset="0%"/>
      <stop stop-color="#262626" stop-opacity="0" offset="100%"/>
    </linearGradient>
    <linearGradient x1="62.531%" y1="13.086%" x2="24.779%" y2="100.996%" id="linearGradient-11">
      <stop stop-color="#262626" stop-opacity="0.1" offset="0%"/>
      <stop stop-color="#262626" stop-opacity="0" offset="100%"/>
    </linearGradient>
    <linearGradient x1="0%" y1="50%" x2="100%" y2="50%" id="linearGradient-12">
      <stop stop-color="#262626" stop-opacity="0.1" offset="0%"/>
      <stop stop-color="#262626" stop-opacity="0" offset="100%"/>
    </linearGradient>
    <radialGradient cx="14.489%" cy="14.584%" fx="14.489%" fy="14.584%" r="99.973%" id="radialGradient-13">
      <stop stop-color="#FFFFFF" stop-opacity="0.1" offset="0%"/>
      <stop stop-color="#FFFFFF" stop-opacity="0" offset="100%"/>
    </radialGradient>
    <path d="M61.7092552,18.1492685 L52.8883579,18.1492685 C49.150911,7.56854769 39.0776641,0 27.2249917,0 C12.1967963,0 0,12.1967963 0,27.2249917 C0,42.2531871 12.1967963,54.4499834 27.2249917,54.4499834 L61.7092552,54.4499834 C71.7280521,54.4499834 79.8607016,46.3195119 79.8607016,36.3007149 C79.8607016,26.281918 71.7280521,18.1492685 61.7092552,18.1492685 Z" id="path-14"/>
    <linearGradient x1="49.994%" y1="0.226%" x2="49.994%" y2="99.725%" id="linearGradient-16">
      <stop stop-color="#212121" stop-opacity="0.04" offset="0%"/>
      <stop stop-color="#212121" stop-opacity="0" offset="66%"/>
    </linearGradient>
    <path d="M34.4842635,0 L0,0 L0,36.3007149 L34.4842635,36.3007149 C44.5030604,36.3007149 52.6357099,28.1680654 52.6357099,18.1492685 C52.6357099,8.13047152 44.5030604,0 34.4842635,0 Z" id="path-17"/>
    <path d="M0.44499834,0.44499834 L15.1639178,46.9278602 C20.0840183,41.9903357 27.66999,35.1840877 27.66999,27.66999 C27.66999,12.6417946 15.4731938,0.44499834 0.44499834,0.44499834 Z" id="path-19"/>
    <filter x="-25.7%" y="-10.8%" width="151.4%" height="130.1%" filterUnits="objectBoundingBox" id="filter-20">
      <feOffset dx="0" dy="2" in="SourceAlpha" result="shadowOffsetOuter1"/>
      <feGaussianBlur stdDeviation="2" in="shadowOffsetOuter1" result="shadowBlurOuter1"/>
      <feColorMatrix values="0 0 0 0 0   0 0 0 0 0   0 0 0 0 0  0 0 0 0.1 0" type="matrix" in="shadowBlurOuter1"/>
    </filter>
    <radialGradient cx="10.1054816%" cy="14.269%" fx="10.1054816%" fy="14.269%" r="144.567702%" gradientTransform="translate(0.101055,0.142690),scale(0.681812,1.000000),translate(-0.101055,-0.142690)" id="radialGradient-21">
      <stop stop-color="#FFFFFF" stop-opacity="0.1" offset="0%"/>
      <stop stop-color="#FFFFFF" stop-opacity="0" offset="100%"/>
    </radialGradient>
  </defs>
  <g fill="none">
    <circle fill="#0535C1" cx="127.776687" cy="127.776687" r="127.776687"/>
    <polygon points="155.363227 58.0807083 230.86793 58.0807083 230.86793 133.585411 155.363227 133.585411"/>
    <g transform="translate(158.510436, 73.810219)">
      <mask id="mask-2" fill="white">
        <use xlink:href="#path-1"/>
      </mask>
      <g/>
      <g mask="url(#mask-2)">
        <path d="M53.4829517,15.7295112 L45.838174,15.7295112 C42.597311,6.560134 33.8657117,0 23.5942668,0 C10.5698308,0 0,10.5698308 0,23.5942668 C0,36.6187028 10.5698308,47.1907116 23.5942668,47.1907116 L53.4829517,47.1907116 C62.169477,47.1871051 69.2100591,40.1455481 69.2124629,31.4590224 C69.2088571,22.7733472 62.1686268,15.733117 53.4829517,15.7295112 Z" fill="#EAEAEA"/>
        <path d="M69.2124629,31.6485083 L69.2124629,31.4590224 C69.2088571,22.7733472 62.1686268,15.733117 53.4829517,15.7295112 L45.6160181,15.7295112 L45.6160181,16.1215511 L53.4829517,16.1215511 C62.0915011,16.1232056 69.100447,23.0428656 69.2124629,31.6506863 L69.2124629,31.6485083 Z" fill-opacity="0.2" fill="#FFFFFF"/>
        <polygon fill="url(#linearGradient-3)" points="77.3124424 47.1907116 23.5942668 47.1907116 45.85342 15.7295112"/>
        <g transform="translate(23.594267, 15.729511)">
          <mask id="mask-5" fill="white">
            <use xlink:href="#path-4"/>
          </mask>
          <g/>
          <g mask="url(#mask-5)">
            <g transform="translate(-0.719725, -16.449236)">
              <use fill="black" fill-opacity="1" filter="url(#filter-7)" xlink:href="#path-6"/>
              <use fill="#E1E1E1" xlink:href="#path-6"/>
            </g>
          </g>
        </g>
        <circle fill="#EEEEEE" cx="23.5942668" cy="23.5942668" r="23.5942668"/>
        <path d="M23.5942668,0.39203988 C36.5555408,0.39203988 47.0796336,10.8529707 47.1907116,23.7989987 L47.1907116,23.6116908 C47.1907116,10.5872548 36.6187028,0.0152459953 23.5942668,0.0152459953 C10.5698308,0.0152459953 0,10.5698308 0,23.5942668 L0,23.7837527 C0.108899967,10.8529707 10.6329928,0.39203988 23.5942668,0.39203988 Z" fill-opacity="0.2" fill="#FFFFFF"/>
        <path d="M53.4829517,46.7964937 L23.5942668,46.7964937 C10.6351708,46.7964937 0.111077966,36.3355629 0,23.3917129 L0,23.5811988 C0,36.6056348 10.5698308,47.1754656 23.5942668,47.1754656 L53.4829517,47.1754656 C62.1686268,47.1718598 69.2088571,40.1316296 69.2124629,31.4459544 L69.2124629,31.2586465 C69.1040123,39.8697351 62.0947223,46.7945875 53.4829517,46.7986717 L53.4829517,46.7964937 Z" fill-opacity="0.1" fill="#212121"/>
      </g>
    </g>
    <path d="M211.993387,89.5397307 L204.34861,89.5397307 C201.107747,80.3703535 192.376147,73.8102195 182.104702,73.8102195 C169.080266,73.8102195 158.510436,84.3800502 158.510436,97.4044863 C158.510436,110.428922 169.080266,121.000931 182.104702,121.000931 L211.993387,121.000931 C220.679913,120.997325 227.720495,113.955768 227.722899,105.269242 C227.719293,96.5835667 220.679062,89.5433364 211.993387,89.5397307 Z" fill="url(#radialGradient-8)"/>
    <polygon fill="#FFF176" points="92.9286976 53.7247096 159.721403 53.7247096 159.721403 111.805418 92.9286976 111.805418"/>
    <polygon fill="#FFFFFF" points="85.6672479 142.295231 165.527949 142.295231 165.527949 222.155932 85.6672479 222.155932"/>
    <path d="M174.239947,105.996694 L185.855217,105.996694 L185.855217,129.227235 L69.6959787,129.227235 L69.6959787,105.996694 L81.3112492,105.996694 L81.3112492,59.5312558 L127.776687,30.4919907 L174.239947,59.5312558 L174.239947,105.996694 Z M151.007228,105.996694 L151.007228,72.4075879 L127.776687,57.8912223 L104.543968,72.4075879 L104.543968,105.996694 L151.007228,105.996694 Z" fill="#F4481E"/>
    <path d="M64.5362983,238.830695 L84.2167003,105.994516 L171.336674,105.994516 L191.014898,238.830695 C172.369045,249.4724 150.782894,255.551196 127.776687,255.551196 C104.77048,255.551196 83.1843286,249.4724 64.5362983,238.830695 Z M153.788533,146.071881 L99.1338177,163.831288 L92.4909198,208.665404 L159.821591,186.785223 L153.788533,146.069703 L153.788533,146.071881 Z" fill="#F4481E"/>
    <path d="M174.128869,129.227235 L190.365854,238.830695 C171.720002,249.4724 150.13385,255.551196 127.127643,255.551196 C104.121436,255.551196 82.5352848,249.4724 63.8872545,238.830695 L80.1264175,129.227235 L69.6959787,129.227235 L69.6959787,105.996694 L81.3112492,105.996694 L81.3112492,59.5312558 L127.776687,30.4919907 L174.239947,59.5312558 L174.239947,105.996694 L185.855217,105.996694 L185.855217,129.227235 L174.131047,129.227235 L174.128869,129.227235 Z" fill="url(#linearGradient-9)"/>
    <polygon fill="url(#linearGradient-10)" points="127.776687 105.996694 81.3112492 105.996694 81.3112492 59.5312558 127.776687 30.4919907"/>
    <path d="M127.776687,255.551238 C105.60223,255.564056 83.8067405,249.801418 64.5362983,238.830695 L79.0962239,129.227235 L127.774509,129.227235 L127.774509,255.551238 L127.776687,255.551238 Z" fill="url(#linearGradient-11)"/>
    <polygon fill="url(#linearGradient-12)" transform="translate(98.736333, 117.613054) scale(-1, 1) translate(-98.736333, -117.613054) " points="69.695979 105.996694 127.776687 105.996694 127.776687 129.229413 69.695979 129.229413"/>
    <circle fill="url(#radialGradient-13)" cx="127.776687" cy="127.776687" r="127.776687"/>
    <polygon points="27.5887176 82.7639747 114.708691 82.7639747 114.708691 169.883948 27.5887176 169.883948"/>
    <g transform="translate(31.217264, 100.913243)">
      <mask id="mask-15" fill="white">
        <use xlink:href="#path-14"/>
      </mask>
      <g/>
      <g mask="url(#mask-15)">
        <path d="M61.7092552,18.1492685 L52.8883579,18.1492685 C49.150911,7.56854769 39.0776641,0 27.2249917,0 C12.1967963,0 0,12.1967963 0,27.2249917 C0,42.2531871 12.1967963,54.4499834 27.2249917,54.4499834 L61.7092552,54.4499834 C71.7280521,54.4499834 79.8607016,46.3195119 79.8607016,36.3007149 C79.8607016,26.281918 71.7280521,18.1492685 61.7092552,18.1492685 Z" fill="#FAFAFA"/>
        <path d="M79.8607016,36.5185149 L79.8607016,36.3007149 C79.8607016,26.281918 71.7280521,18.1492685 61.7092552,18.1492685 L52.6357099,18.1492685 L52.6357099,18.6044703 L61.7092552,18.6044703 C71.6415555,18.604797 79.7296215,26.5870796 79.8607016,36.5185149 L79.8607016,36.5185149 Z" fill-opacity="0.2" fill="#FFFFFF"/>
        <polygon fill="url(#linearGradient-16)" points="89.2064968 54.4499834 27.2249917 54.4499834 52.9079599 18.1492685"/>
        <g transform="translate(27.224992, 18.149268)">
          <mask id="mask-18" fill="white">
            <use xlink:href="#path-17"/>
          </mask>
          <g/>
          <g mask="url(#mask-18)">
            <g transform="translate(-0.444998, -18.594267)">
              <use fill="black" fill-opacity="1" filter="url(#filter-20)" xlink:href="#path-19"/>
              <use fill="#E1E1E1" xlink:href="#path-19"/>
            </g>
          </g>
        </g>
        <circle fill="#FFFFFF" cx="27.2249917" cy="27.2249917" r="27.2249917"/>
        <path d="M27.2249917,0.453023862 C42.1813131,0.453023862 54.3236594,12.5234962 54.4499834,27.4602156 L54.4499834,27.2424157 C54.4499834,12.2142203 42.2531871,0.0174239947 27.2249917,0.0174239947 C12.1967963,0.0174239947 0,12.1967963 0,27.2249917 L0,27.4427916 C0.126323961,12.5234962 12.2686703,0.453023862 27.2249917,0.453023862 Z" fill-opacity="0.2" fill="#FFFFFF"/>
        <path d="M61.7092552,53.9969595 L27.2249917,53.9969595 C12.2686703,53.9969595 0.126323961,41.9264872 0,26.9897678 L0,27.2075677 C0,42.2357631 12.1967963,54.4325594 27.2249917,54.4325594 L61.7092552,54.4325594 C71.7280521,54.4325594 79.8607016,46.2999099 79.8607016,36.2811129 L79.8607016,36.063313 C79.7321997,45.992812 71.6561781,53.9969595 61.7092552,53.9969595 Z" fill-opacity="0.1" fill="#212121"/>
      </g>
    </g>
    <path d="M92.9265196,119.062512 L84.1056223,119.062512 C80.3681755,108.481791 70.2949285,100.913243 58.4422562,100.913243 C43.4140608,100.913243 31.2172645,113.110039 31.2172645,128.138235 C31.2172645,143.16643 43.4140608,155.363227 58.4422562,155.363227 L92.9265196,155.363227 C102.945317,155.363227 111.077966,147.232755 111.077966,137.213958 C111.077966,127.195161 102.945317,119.062512 92.9265196,119.062512 Z" fill="url(#radialGradient-21)"/>
    <g opacity="0.1">
      <path d="M127.776687,1.33511359 C198.126066,1.33511359 255.174402,58.1808962 255.538128,128.443155 C255.538128,128.225355 255.551196,128.007555 255.551196,127.776687 C255.551196,57.2095085 198.343865,0 127.776687,0 C57.2095085,0 0,57.2095085 0,127.776687 C0,127.994487 0.0152459953,128.212287 0.0152459953,128.443155 C0.376793885,58.1808962 57.4273085,1.33511359 127.776687,1.33511359 Z" fill="#FFFFFF"/>
      <path d="M255.538128,127.108041 C255.174402,197.3703 198.126066,254.216082 127.776687,254.216082 C57.4273085,254.216082 0.376793885,197.3703 0.0152459953,127.108041 C0.0152459953,127.341087 0,127.558887 0,127.776687 C0,198.343865 57.2095085,255.551196 127.776687,255.551196 C198.343865,255.551196 255.551196,198.343865 255.551196,127.776687 C255.551196,127.558887 255.538128,127.341087 255.538128,127.108041 Z" fill="#263238"/>
    </g>
    <circle fill="url(#radialGradient-13)" cx="127.776687" cy="127.776687" r="127.776687"/>
  </g>
</svg>

<svg width="256" height="256" xmlns="http://www.w3.org/2000/svg" xmlns:xlink="http://www.w3.org/1999/xlink" preserveAspectRatio="xMidYMid"><defs><linearGradient x1="49.994%" y1=".226%" x2="49.994%" y2="99.725%" id="c"><stop stop-color="#212121" stop-opacity=".04" offset="0%"/><stop stop-color="#212121" stop-opacity="0" offset="66%"/></linearGradient><linearGradient x1="36.626%" y1="20.358%" x2="64.01%" y2="100.652%" id="i"><stop stop-color="#FFF" stop-opacity=".1" offset="0%"/><stop stop-color="#FFF" stop-opacity="0" offset="100%"/></linearGradient><linearGradient x1="68.935%" y1="65.756%" x2="31.065%" y2="35.799%" id="j"><stop stop-color="#262626" stop-opacity=".1" offset="0%"/><stop stop-color="#262626" stop-opacity="0" offset="100%"/></linearGradient><linearGradient x1="62.531%" y1="13.086%" x2="24.779%" y2="100.996%" id="k"><stop stop-color="#262626" stop-opacity=".1" offset="0%"/><stop stop-color="#262626" stop-opacity="0" offset="100%"/></linearGradient><linearGradient x1="0%" y1="50%" x2="100%" y2="50%" id="l"><stop stop-color="#262626" stop-opacity=".1" offset="0%"/><stop stop-color="#262626" stop-opacity="0" offset="100%"/></linearGradient><linearGradient x1="49.994%" y1=".226%" x2="49.994%" y2="99.725%" id="p"><stop stop-color="#212121" stop-opacity=".04" offset="0%"/><stop stop-color="#212121" stop-opacity="0" offset="66%"/></linearGradient><path d="M53.483 15.73h-7.645C42.598 6.56 33.866 0 23.594 0 10.57 0 0 10.57 0 23.594 0 36.62 10.57 47.191 23.594 47.191h29.889c8.686-.004 15.727-7.045 15.73-15.732-.004-8.686-7.044-15.726-15.73-15.73Z" id="a"/><path d="M29.887 0H0v31.459h29.887c8.685-.004 15.725-7.044 15.729-15.73C45.612 7.045 38.572.005 29.886 0Z" id="d"/><path d="m.72.72 12.756 40.284c4.26-4.28 10.838-10.178 10.838-16.69C24.314 11.29 13.744.72.72.72Z" id="g"/><path d="M61.71 18.15h-8.822C49.151 7.568 39.078 0 27.225 0 12.197 0 0 12.197 0 27.225 0 42.253 12.197 54.45 27.225 54.45h34.484c10.02 0 18.152-8.13 18.152-18.15 0-10.018-8.133-18.15-18.152-18.15Z" id="n"/><path d="M34.484 0H0v36.3h34.484c10.02 0 18.152-8.132 18.152-18.15C52.636 8.13 44.503 0 34.484 0Z" id="q"/><path d="m.445.445 14.719 46.483C20.084 41.99 27.67 35.184 27.67 27.67 27.67 12.642 15.473.445.445.445Z" id="t"/><radialGradient cx="10.105%" cy="14.269%" fx="10.105%" fy="14.269%" r="144.565%" gradientTransform="matrix(.68182 0 0 1 .032 0)" id="h"><stop stop-color="#FFF" stop-opacity=".1" offset="0%"/><stop stop-color="#FFF" stop-opacity="0" offset="100%"/></radialGradient><radialGradient cx="14.489%" cy="14.584%" fx="14.489%" fy="14.584%" r="99.973%" id="m"><stop stop-color="#FFF" stop-opacity=".1" offset="0%"/><stop stop-color="#FFF" stop-opacity="0" offset="100%"/></radialGradient><radialGradient cx="10.105%" cy="14.269%" fx="10.105%" fy="14.269%" r="144.568%" gradientTransform="matrix(.68181 0 0 1 .032 0)" id="u"><stop stop-color="#FFF" stop-opacity=".1" offset="0%"/><stop stop-color="#FFF" stop-opacity="0" offset="100%"/></radialGradient><filter x="-29.7%" y="-12.4%" width="159.3%" height="134.8%" filterUnits="objectBoundingBox" id="f"><feOffset dy="2" in="SourceAlpha" result="shadowOffsetOuter1"/><feGaussianBlur stdDeviation="2" in="shadowOffsetOuter1" result="shadowBlurOuter1"/><feColorMatrix values="0 0 0 0 0 0 0 0 0 0 0 0 0 0 0 0 0 0 0.2 0" in="shadowBlurOuter1"/></filter><filter x="-25.7%" y="-10.8%" width="151.4%" height="130.1%" filterUnits="objectBoundingBox" id="s"><feOffset dy="2" in="SourceAlpha" result="shadowOffsetOuter1"/><feGaussianBlur stdDeviation="2" in="shadowOffsetOuter1" result="shadowBlurOuter1"/><feColorMatrix values="0 0 0 0 0 0 0 0 0 0 0 0 0 0 0 0 0 0 0.1 0" in="shadowBlurOuter1"/></filter></defs><g fill="none"><circle fill="#0535C1" cx="127.777" cy="127.777" r="127.777"/><path d="M155.363 58.08h75.505v75.505h-75.505z"/><g transform="translate(158.51 73.81)"><mask id="b" fill="#fff"><use xlink:href="#a"/></mask><g mask="url(#b)"><path d="M53.483 15.73h-7.645C42.598 6.56 33.866 0 23.594 0 10.57 0 0 10.57 0 23.594 0 36.62 10.57 47.191 23.594 47.191h29.889c8.686-.004 15.727-7.045 15.73-15.732-.004-8.686-7.044-15.726-15.73-15.73Z" fill="#EAEAEA"/><path d="M69.212 31.649v-.19c-.003-8.686-7.043-15.726-15.729-15.73h-7.867v.393h7.867c8.609.001 15.617 6.92 15.73 15.529v-.002Z" fill-opacity=".2" fill="#FFF"/><path fill="url(#c)" d="M77.312 47.19H23.594l22.26-31.46z"/><g transform="translate(23.594 15.73)"><mask id="e" fill="#fff"><use xlink:href="#d"/></mask><g mask="url(#e)"><g transform="translate(-.72 -16.45)"><use fill="#000" filter="url(#f)" xlink:href="#g"/><use fill="#E1E1E1" xlink:href="#g"/></g></g></g><circle fill="#EEE" cx="23.594" cy="23.594" r="23.594"/><path d="M23.594.392c12.962 0 23.486 10.461 23.597 23.407v-.187C47.19 10.587 36.619.015 23.594.015 10.57.015 0 10.57 0 23.595v.189C.109 10.853 10.633.392 23.594.392Z" fill-opacity=".2" fill="#FFF"/><path d="M53.483 46.796H23.594C10.635 46.796.111 36.336 0 23.392v.19c0 13.024 10.57 23.593 23.594 23.593h29.889c8.686-.003 15.726-7.043 15.73-15.729v-.187c-.109 8.61-7.118 15.536-15.73 15.54v-.003Z" fill-opacity=".1" fill="#212121"/></g></g><path d="M211.993 89.54h-7.644c-3.241-9.17-11.973-15.73-22.244-15.73-13.025 0-23.595 10.57-23.595 23.594 0 13.025 10.57 23.597 23.595 23.597h29.888c8.687-.004 15.727-7.045 15.73-15.732-.004-8.685-7.044-15.726-15.73-15.73Z" fill="url(#h)"/><path fill="#FFF176" d="M92.929 53.725h66.792v58.08H92.93z"/><path fill="#FFF" d="M85.667 142.295h79.86v79.86h-79.86z"/><path d="M174.24 105.997h11.615v23.23H69.696v-23.23h11.615V59.53l46.466-29.039 46.463 29.04v46.465Zm-23.233 0v-33.59l-23.23-14.516-23.233 14.517v33.589h46.463Z" fill="#F4481E"/><path d="m64.536 238.83 19.68-132.835h87.12l19.679 132.836c-18.646 10.641-40.232 16.72-63.238 16.72-23.007 0-44.593-6.079-63.24-16.72Zm89.253-92.758-54.655 17.76-6.643 44.833 67.33-21.88-6.032-40.715v.002Z" fill="#F4481E"/><path d="m174.129 129.227 16.237 109.604c-18.646 10.641-40.232 16.72-63.238 16.72-23.007 0-44.593-6.079-63.24-16.72l16.238-109.604h-10.43v-23.23h11.615V59.53l46.466-29.039 46.463 29.04v46.465h11.615v23.23H174.13Z" fill="url(#i)"/><path fill="url(#j)" d="M127.777 105.997H81.31V59.53l46.466-29.039z"/><path d="M127.777 255.551a127.675 127.675 0 0 1-63.24-16.72l14.56-109.604h48.678v126.324h.002Z" fill="url(#k)"/><path fill="url(#l)" transform="matrix(-1 0 0 1 197.473 0)" d="M69.696 105.997h58.08v23.232h-58.08z"/><circle fill="url(#m)" cx="127.777" cy="127.777" r="127.777"/><path d="M27.589 82.764h87.12v87.12h-87.12z"/><g transform="translate(31.217 100.913)"><mask id="o" fill="#fff"><use xlink:href="#n"/></mask><g mask="url(#o)"><path d="M61.71 18.15h-8.822C49.151 7.568 39.078 0 27.225 0 12.197 0 0 12.197 0 27.225 0 42.253 12.197 54.45 27.225 54.45h34.484c10.02 0 18.152-8.13 18.152-18.15 0-10.018-8.133-18.15-18.152-18.15Z" fill="#FAFAFA"/><path d="M79.86 36.519V36.3c0-10.02-8.132-18.152-18.15-18.152h-9.074v.455h9.073c9.933 0 18.02 7.983 18.152 17.915Z" fill-opacity=".2" fill="#FFF"/><path fill="url(#p)" d="M89.206 54.45H27.225l25.683-36.3z"/><g transform="translate(27.225 18.15)"><mask id="r" fill="#fff"><use xlink:href="#q"/></mask><g mask="url(#r)"><g transform="translate(-.445 -18.594)"><use fill="#000" filter="url(#s)" xlink:href="#t"/><use fill="#E1E1E1" xlink:href="#t"/></g></g></g><circle fill="#FFF" cx="27.225" cy="27.225" r="27.225"/><path d="M27.225.453c14.956 0 27.099 12.07 27.225 27.007v-.218C54.45 12.214 42.253.017 27.225.017 12.197.017 0 12.197 0 27.225v.218C.126 12.523 12.269.453 27.225.453Z" fill-opacity=".2" fill="#FFF"/><path d="M61.71 53.997H27.224C12.269 53.997.126 41.927 0 26.99v.218c0 15.028 12.197 27.225 27.225 27.225h34.484c10.02 0 18.152-8.133 18.152-18.152v-.218c-.129 9.93-8.205 17.934-18.152 17.934Z" fill-opacity=".1" fill="#212121"/></g></g><path d="M92.927 119.063h-8.821c-3.738-10.581-13.811-18.15-25.664-18.15-15.028 0-27.225 12.197-27.225 27.225 0 15.028 12.197 27.225 27.225 27.225h34.485c10.018 0 18.151-8.13 18.151-18.149s-8.133-18.151-18.151-18.151Z" fill="url(#u)"/><g opacity=".1"><path d="M127.777 1.335c70.35 0 127.397 56.846 127.761 127.108 0-.218.013-.435.013-.666C255.551 57.21 198.344 0 127.777 0 57.21 0 0 57.21 0 127.777c0 .217.015.435.015.666C.377 58.181 57.427 1.335 127.777 1.335Z" fill="#FFF"/><path d="M255.538 127.108c-.364 70.262-57.412 127.108-127.761 127.108-70.35 0-127.4-56.846-127.762-127.108 0 .233-.015.45-.015.669C0 198.344 57.21 255.55 127.777 255.55c70.567 0 127.774-57.207 127.774-127.774 0-.218-.013-.436-.013-.669Z" fill="#263238"/></g><circle fill="url(#m)" cx="127.777" cy="127.777" r="127.777"/></g></svg>
